X:196
T: Hinter Metz, bei Paris in Chalons (3-37), S. 97
N: K1171
O: Luxemburg
S: KINTZELE, Guillaume: An der Ucht, Bd. 3 Luxemburg 1928]
N: in der Quelle mit einer 2. Stimme versehen
R: Scherzlied, Verfhrung]
M: 4/4
L: 1/16
K: C
C2E2 | G4G4G4A4 | G6F2E4
C2E2 | G4G4G4A4 | G6F2E4
A3G | G4F3FF4G3F | E4z8
C2C2 | A2A2A2A2c3c
B2A2 | A3GG2G2c4
c3c | d4d3dB4A2zB | c8z4

